!!!!SEGMENT: pl-wnifc--6803-n--002_tymolski-fabian--mazury-na-peronie-op-142-mazur-no-1.krn
!!!cenid: 18xx:3993
!!!COM: Tymolski, Fabian
!!!COM-rismID: pe30006748
!!!CDT: 1828/01/14-1885
!!!CNT:
!!!OPR: Mazury „Na Peronie” op. 142
!!!OTL: Mazur No. 1
!!!OMV: 002
!!!PDT:
!!!AGN:
!!!SMS-siglum: PL-Wnifc
!!!SMS-shelfmark: 6803/n
!!!SMS-shelfwork: 001-002 M
!!!SMS-variant:
!!!SMS-altvar:
!!!NIFC-rismSourceID: 1001158046
!!!NIFC-rismChildID: 1001158236
!!!NIFC-islandoraID: nifc:213566
!!!URL-pdf-islandora: https://repozytorium.nifc.pl/islandora/object/nifc%3A213566/datastream/PDF/view
!!!URL-scan: https://polish.musicsources.pl/pl/lokalizacje/galeria/druki-muzyczne/16923 @EN{Scan on Polish Music Sources Website} @PL{Skany w portalu Dziedzictwo Muzyki Polskiej w otwartym dostępie}
!!!ONB-nifc: UWAGA: części: 1. Wstęp, 2. Mazur No. 1, 3. Mazur No. 2, 4. Mazur No. 3, 5. Zakończenie
!!!AIN: 2 piano
!!!key: D
**kern	**kern	**dynam
*part2	*part1	*part1
*staff2	*staff1	*
*I"[Piano]	*I"[Piano]	*
*I'pf	*I'pf	*
*ICklav	*ICklav	*
*Ipiano	*Ipiano	*
*clefF4	*clefG2	*
*k[f#c#]	*k[f#c#]	*
*D:	*D:	*
*M3/8	*M3/8	*
=1	=1	=1
!	!LO:TX:a:B:t=Mazur.\nNo. 1.	!
16DD/ 16AA 16D	16d/ 16f# 16a	ff
16r	16r	.
8D\L 8F# 8A	8dd\L	.
.	8qee/	.
8D\J 8F# 8A	16dd\L	.
.	16cc#\JJ	.
=2	=2	=2
8D\L 8F# 8A	16dd'\LL	.
.	16ff#'\JJ	.
8D\ 8F# 8A	8aa'\L	.
8D^\J 8F# 8A 8d	8dd^\J 8ff# 8ddd	.
=3	=3	=3
8AA/	16ccc#\LL	.
.	16ee\JJ	.
!	!LO:TUP:a:problem:klamra łukowa	!
8A\L 8c# 8g	24gg\LL	.
.	24aa\	.
.	24gg\JJ	.
8A\J 8c# 8g	16ff#\LL	.
.	16ee\JJ	.
=4	=4	=4
.	(8qgg/	.
8D\	16ff#\LL)	.
.	16ee\JJ	.
8A\L 8d 8f#	8dd\L	.
8A\J 8c# 8e	8a^\J 8cc# 8aa	.
=5	=5	=5
16DD/ 16AA 16D	16d/ 16f# 16a	.
16r	16r	.
8D\L 8F# 8A	8dd\L	.
.	8qee/	.
8D\J 8F# 8A	16dd\L	.
.	16cc#\JJ	.
!!LO:LB:g=original	!	!
=6	=6	=6
8D\L 8F# 8A	16dd'\LL	.
.	16ff#'\JJ	.
8D\ 8F# 8A	8aa'\L	.
8D^\J 8F# 8A 8d	8dd^\J 8ff# 8ddd	.
=7	=7	=7
8AA/	16ccc#\LL	.
.	16ee\JJ	.
!	!LO:TUP:a:problem:klamra łukowa	!
8A\L 8c# 8g	24gg\LL	.
.	24aa\	.
.	24gg\JJ	.
8A\J 8c# 8g	16ff#\LL	.
.	16ee\JJ	.
=8	=8	=8
8d\L 8f#	8dd\L	.
!	!LO:TX:b:i:B:t=Fine.	!
8D\J 8F# 8A 8d	8f#\J 8a 8dd	.
8r	8r	.
*kcancel	*kcancel	*
=9:|!|:	=9:|!|:	=9:|!|:
*k[b-e-]	*k[b-e-]	*
*B-:	*B-:	*
8BB-\L 8D 8F 8B-	8f'/L	mf
8BB-\ 8D 8F 8B-	8f'/	.
8BB-\J 8D 8F 8B-	8f'/J	.
=10	=10	=10
8BB-\L 8D 8F 8B-	4f/	.
8BB-\ 8D 8F 8B-	.	.
8BB-\J 8D 8F 8B-	(16b-\LL	.
.	16dd\JJ)	.
!!LO:LB:g=original	!	!
=11	=11	=11
8BB-\L 8D 8F 8B-	16f/LL	.
.	16f/JJ	.
8BB-\ 8D 8F 8B-	8f/L	.
8BB-\J 8D 8F 8B-	8f/J	.
=12	=12	=12
8BB-\L 8D 8F 8B-	4f/	.
8BB-\ 8D 8F 8B-	.	.
8BB-\J 8D 8F 8B-	(16b-\LL	.
.	16dd\JJ)	.
=13	=13	=13
8BB-\L 8D 8F 8B-	8f'/L	.
8BB-\ 8D 8F 8B-	8f'/	.
8BB-\J 8D 8F 8B-	8f'/J	.
=14	=14	=14
8BB-\L 8D 8F 8B-	8f'\L	.
8BB-\ 8D 8F 8B-	16b-'\L	.
.	16dd'\J	.
8BB-\J 8D 8F 8B-	8ff'\J	.
=15	=15	=15
8FF/ 8F	16gg'\LL	f
.	16ff'\JJ	.
!	!LO:TUP:a:problem:klamra łukowa	!
8F\L 8A 8e-	24ee-\LL	.
.	24ff\	.
.	24ee-\JJ	.
8F\J 8A 8e-	16dd\LL	.
.	16cc\JJ	.
=16	=16	=16
!LO:TX:b:i:t=Da capo al Fine.	!	!
8B-'\L 8d	8b-'\L	.
8BB-'\J 8F 8B-	8b-'\J 8dd 8bb-	.
8r	8r	.
==17	==17	==17
*k[f#]	*k[f#]	*
*G:	*G:	*
!LO:TX:t=P:problem: w źródle brak kasowników - błąd wyświetlania VHV	!LO:TX:t=P:problem: brak kasowników - błąd wyświetlania VHV	!
!	!LO:TX:a:B:t=Trio.	!
!	!LO:TX:a:i:t=leggiere	!
16G'\LL 16B 16d	16g/LL	p
16G'\JJ 16B 16d	16g/JJ	.
8G'\L 8B 8d	8g/L	.
8G'\J 8B 8d	8g/J	.
=18	=18	=18
8G'\L 8B 8d	8g/L	.
8G'\ 8B 8d	8g/	.
8G'^\J 8c 8d	8f#^>/J 8a	.
=19	=19	=19
8G\ 8B 8d	16g\LL 16b	.
.	16a\JJ 16cc	.
8G'\L 8B	8g/L 8b	.
8D^\J 8A	8d^>/J 8a	.
=20	=20	=20
8BB^\L 8G	8B^>/L 8g	.
8BB^\ 8G	8B^>/ 8g	.
8D^\J 8A	8d^>/J 8a	.
=21	=21	=21
8G\L 8B	8g'/L 8b	.
8G\ 8B 8d	8g'/J 8b	.
8G^\J 8c 8e	(16cc\LL	.
.	16ee\JJ)	.
=22	=22	=22
8G\L 8B 8d	8.dd\L	.
8G\ 8B 8d	.	.
.	(16gg\L	.
8G\J 8c 8d	16aa\	.
.	16ccc\JJ)	.
!!LO:LB:g=original	!	!
=23	=23	=23
8G\L 8B 8d	8bb\	.
8G\ 8B 8d	(16bb\LL	.
.	16gg\JJ)	.
8G\J 8c 8d	(16aa\LL	.
.	16ff#\JJ)	.
=24	=24	=24
8G\L 8B 8d	16gg\	.
.	16r	.
8G\ 8B 8d	8dd^\L	.
8G\J 8c 8d	(16cc\L	.
.	16a\JJ)	.
=25	=25	=25
8G\L 8B 8d	8g'/L 8b	.
8G\ 8B 8d	8g'/J 8b	.
8G\J 8c 8e	(16cc\LL	<
.	16ee\JJ)	.
=26	=26	=26
8G\L 8B 8d	8.dd\L	.
8G\ 8B 8d	.	.
.	(16gg\L	.
8G\J 8c 8d	16aa\	[
.	16ccc\JJ)	.
=27	=27	=27
8G\ 8B 8d	8bb\	f
8G^\L 8B 8d	(16bb\LL	.
.	16gg\JJ)	.
8D^\J 8F# 8A 8d	(16aa\LL	.
.	16ff#\JJ)	.
=28	=28	=28
!LO:TX:b:i:t=Mazur No. 1. da capo.	!	!
8G'\L 8B 8d	8gg\L	.
8G^\J 8B 8d 8g	8b^\J 8dd 8gg	.
8r	8r	.
==	==	==
*-	*-	*-
!!!system-decoration: {(s1,s2)}
!!!RDF**kern: > = above
!!!RDF**kern: < = below
!!!ENC: Solarz Mateusz
!!!END: 2022-08-03
!!!ENC: Jan Barakat
!!!END: 2022-09-08
!!!YEC: Copyright 2022 Narodowy Instytut Fryderyka Chopina (https://polishscores.org)
!!!YEM: License CC-BY-4.0 (https://creativecommons.org/licenses/by/4.0)
